!!!COM:	Bach, Johann Sebastian
!!!CDT:	1685/02/21/-1750/07/28/
!!!OTL@@DE:	Wer nur den lieben Gott la&szlig;t walten
!!!SCT:	BWV 179/6
!!!PC#:	339
!!!AGN:	chorale
**kern	**kern	**kern	**kern
*ICvox	*ICvox	*ICvox	*ICvox
*Ibass	*Itenor	*Ialto	*Isoprn
*I"Bass	*I"Tenor	*I"Alto	*I"Soprano
*>[A,A,B]	*>[A,A,B]	*>[A,A,B]	*>[A,A,B]
*>norep[A,B]	*>norep[A,B]	*>norep[A,B]	*>norep[A,B]
*>A	*>A	*>A	*>A
*	*oclefC4	*oclefC3	*oclefC1
*clefF4	*clefGv2	*clefG2	*clefG2
*k[]	*k[]	*k[]	*k[]
*a:	*a:	*a:	*a:
*M4/4	*M4/4	*M4/4	*M4/4
*met(c)	*met(c)	*met(c)	*met(c)
*MM100	*MM100	*MM100	*MM100
8AL	4c	4e	4e
8GJ	.	.	.
=1	=1	=1	=1
4F	8cL	16eLL	4a
.	.	16dJJ	.
.	16BL	4f	.
.	16AJJ	.	.
4E	8G#L	.	4b
.	8eJ	16eLL	.
.	.	16dJJ	.
4AA	4e	8c	4cc
.	.	4a	.
4BB	4d#	.	4b
.	.	[8gnX	.
=2	=2	=2	=2
4C#	4e	8gL]	4a
.	.	16f#L	.
.	.	16eJJ	.
4D#	4B	8f#L	4b
.	.	8f#J	.
2E	4.B	8f#L	4.g#
.	.	8eJ	.
.	.	8dnXL	.
.	8A	8cnXJ	8f#
=3	=3	=3	=3
4E;	4G#;	4B;	4e;
4C#	4E	8eL	4gnX
.	.	8dJ	.
4AA	4A	4c#	4g
4D	4A	4d	4fnX
=4	=4	=4	=4
8DL	8G#L	8BL	4e
8CnXJ	8AJ	8cnXJ	.
8FL	8BL	8dL	4a
8EJ	8cJ	8eJ	.
4D#	8cL	4f#	4a
.	8BJ	.	.
4E	4B	4e	4g#
=5	=5	=5	=5
2.AA;	2.c#;	2.e;	2.a;
=:|!	=:|!	=:|!	=:|!
*>B	*>B	*>B	*>B
4E	4e	4g#	4b
=6	=6	=6	=6
4A	16eLL	4a	4cc
.	16cJJ	.	.
.	4f	.	.
8GnXL	.	4b	4dd
8FJ	16eLL	.	.
.	16dJJ	.	.
8EL	8cL	8ccL	4ee
8DJ	8dJ	8gnXJ	.
4C	4e	8ccL	4ee
.	.	8b-J	.
=7	=7	=7	=7
8DL	4.f	4a	4dd
16EL	.	.	.
16FJJ	.	.	.
8GL	.	4bnX	4dd
8GGJ	16eLL	.	.
.	16dJJ	.	.
4C;	4e;	4g;	4cc;
4C	4c	4g	4ee
=8	=8	=8	=8
4D	8cL	4f	4dd
.	8BJ	.	.
4D#	8AL	4f#	4cc
.	16G#L	.	.
.	16AJJ	.	.
4E	8EL	4g#	4b
.	8dJ	.	.
4FnX	8cL	4a	8aL
.	8BJ	.	8bJ
=9	=9	=9	=9
8F#L	4.A	8d#L	4cc
8D#J	.	8f#J	.
8EL	.	8fL	4b
8EEJ	8G#	16eL	.
.	.	16dJJ	.
4AA;	4E;	4c#;	4a;
==	==	==	==
*-	*-	*-	*-
!!!YOR1: 371 vierstimmige Choralges&auml;nge von Johann Sebastian Bach, 
!!!YOR2: 4th ed. by Alfred D&ouml;rffel (Leipzig: Breitkopf und H&auml;rtel, 
!!!YOR2: c.1875). 178 pp. Plate "V.A.10".  reprint: J.S. Bach, 371 Four-Part 
!!!YOR4: Chorales (New York: Associated Music Publishers, Inc., c.1940).
!!!SMS: B&H, 4th ed, Alfred D&ouml;rffel, c.1875, plate V.A.10
!!!EED:  Craig Stuart Sapp
!!!EEV:  2009/05/22
